src/assets/top/LongHairBun.svg

<svg width='280px' height='280px' viewBox='0 0 280 280' version='1.1' xmlns='http://www.w3.org/2000/svg'>
      <g id='Top' strokeWidth='1' fillRule='evenodd'>
        <defs>
          <rect id='path2' x='0' y='0' width='264' height='280' />
          <path
            d='M114.939716,28.3372418 C113.953527,28.5587334 112.985531,28.7906134 112.036894,29.0299707 C96.9448338,32.8379559 88.0168242,43.6513048 80.3566792,59.6480618 C76.5956048,67.5028569 74.3660182,76.7914798 74.0230569,85.4813651 C73.8884429,88.8932666 74.3484305,92.415154 75.267729,95.7003546 C75.6049405,96.9061873 77.4232441,101.086987 77.9224658,97.70885 C78.0885348,96.584253 77.4804043,95.0327505 77.4215529,93.8376154 C77.3444374,92.2693977 77.4273028,90.6807875 77.5341822,89.1149098 C77.7340739,86.1874141 78.2559568,83.3154127 79.1847257,80.524647 C80.5119249,76.5367405 82.2013644,72.212859 84.7874413,68.8480942 C91.1883705,60.5205939 95.7648164,43.2055199 133,41.6707324 C170.235184,40.1359449 181.748751,67.461069 185.182761,73.3006826 C189.2479,80.2147477 187.37751,88.7073939 188.619138,96.2008069 C189.091302,99.05041 190.164155,98.986558 190.751315,96.4378281 C191.748406,92.1082634 192.219217,87.6102098 191.901961,83.1592929 C191.183568,73.1114668 187.496636,46.7057251 167.308863,35.006118 C161.866498,31.8520537 156.438352,29.6874962 151.116597,28.2827668 C154.176091,25.3110645 156,21.5675963 156,17.5 C156,7.83501688 145.702549,0 133,0 C120.297451,0 110,7.83501688 110,17.5 C110,21.5924906 111.846303,25.3568736 114.939716,28.3372418 Z'
            id='path1'
          />
        </defs>
        <mask id='mask2' fill='white'>
          <use href='#path2' />
        </mask>
        <g id='Mask' />
        <g id='Top/Long-Hair/Bun' mask='url("#mask2")'>
          <g transform='translate(-1.000000, 0.000000)'>
            <mask id='mask1' fill='white'>
              <use href='#path1' />
            </mask>
            <use
              class='CustomColor'
              stroke='none'
              fill='#28354B'
              fillRule='evenodd'
              href='#path1'
            />
          </g>
        </g>
      </g>
</svg>

<svg width="280" height="280" xmlns="http://www.w3.org/2000/svg"><defs><path id="a" d="M0 0h264v280H0z"/><path d="M114.94 28.337c-.986.222-1.954.454-2.903.693-15.092 3.808-24.02 14.621-31.68 30.618-3.761 7.855-5.991 17.143-6.334 25.833-.135 3.412.325 6.934 1.245 10.22.337 1.205 2.155 5.386 2.654 2.008.167-1.125-.442-2.676-.5-3.871-.078-1.569.005-3.157.112-4.723.2-2.928.722-5.8 1.65-8.59 1.328-3.988 3.017-8.312 5.603-11.677C91.188 60.521 95.765 43.206 133 41.671c37.235-1.535 48.749 25.79 52.183 31.63 4.065 6.914 2.195 15.406 3.436 22.9.472 2.85 1.545 2.786 2.132.237.997-4.33 1.468-8.828 1.151-13.279-.718-10.048-4.405-36.453-24.593-48.153-5.443-3.154-10.87-5.319-16.192-6.723C154.177 25.31 156 21.568 156 17.5 156 7.835 145.703 0 133 0s-23 7.835-23 17.5c0 4.092 1.846 7.857 4.94 10.837z" id="c"/></defs><mask id="b" fill="#fff"><use href="#a"/></mask><g mask="url(&quot;#b&quot;)"><use class="CustomColor" fill="#28354B" href="#c" transform="translate(-1)"/></g></svg>
